!!!COM: Bach, Johann Sebastian
!!!OPR: Das wohltemperirte Clavier, Band II
!!!XEN: Well-Tempered Clavier, Volume II
!!!OTL: Prelude in C-sharp Minor
!!!OMV: Prelude IV
!!!SCT: BWV 873
!!!SCA: Thematisch-systematisches Verzeichnis der musikalischen Werke Johann Sebastian Bach: Bach-Werke-Verzeichnis (Schmieder)
!!!YOR: Bach Gesellschaft Edition xiv
!!!EED: Walter Hewlett
!!!ENC: Walter Hewlett
!!!CDT: 1685/3//-1750/7/28/
!!!OCY: Deutschland
!!!YEC: Copyright (c) 1994, 2000 Center for Computer Assisted Research in the Humanities
!!!YEM: Rights to all derivative editions reserved
!!!YEM: Refer to licensing agreement for further details
!!!YEN: United States of America
**kern	**dynam
*k[f#c#g#d#]	*
*c#:	*
*M9/8	*
=1-	=1-
*^	*
*^	*	*
4.r	4.r	8C#\L	.
.	.	8E\	.
.	.	8G#\J	.
8r	4.r	[2.c#\	.
8r	.	.	.
8g#/	.	.	.
4cc#M/	4.e\	.	.
8ee/	.	.	.
=2	=2	=2	=2
[4.dd#/	4.f#\	8c#\L]	.
.	.	8B\	.
.	.	8A\J	.
8.dd#/L]	4.g#\	[4.B\	.
16dd#/L	.	.	.
16ee/	.	.	.
16ff#/JJ	.	.	.
4gg#m/	4.d#\	8.B\L]	.
.	.	16E\L	.
8gg#/	.	16F#\	.
.	.	16G#\JJ	.
=3	=3	=3	=3
4gg#/	[4.c#\	(8G#/	.
.	.	[4A\)	.
8cc#/	.	.	.
[4.ff#M/	8.c#\L]	8.A\L]	.
.	16ee\L	16G#\L	.
.	16dd#\	16F#\	.
.	16cc#\JJ	16E\JJ	.
4ff#/]	8cc#\L	4D#\	.
.	8b#\	.	.
8ff#/	8dd#\J	8F#\	.
=4	=4	=4	=4
!!.	(8aP/	.	.
4ff#/	4g#\)	4BB#/	.
8gg#/	8b#\	8GG#/	.
(8ff#/	[4.cc#\	4.C#/	.
[4ee/)	.	.	.
8ee/L]	8cc#\L]	4.CC#/	.
8dd#/	8b#\	.	.
8ee/J	8cc#\J	.	.
=5	=5	=5	=5
4.dd#/	4.b#\	8GG#/L	.
.	.	8BB#/	.
.	.	8D#/J	.
8r	4.r	8.G#\L	.
8r	.	.	.
.	.	16A\L	.
8dd#/	.	16G#\	.
.	.	16F#\JJ	.
! (8dd#P/	!	!	!
4ee/)	8r	4G#M\	.
.	8r	.	.
8b#/	8g#\	8G#\	.
=6	=6	=6	=6
(8b#/	4.a\	8.G#\L	.
[4cc#/)	.	.	.
.	.	16C#\L	.
.	.	16D#\	.
.	.	16E#\JJ	.
8.cc#/L]	4.r	8.F#m\L	.
16ee/L	.	16G#\L	.
16dd#/	.	16F#\	.
16cc#/JJ	.	16En\JJ	.
!!(8cc#P/	.	.	.
4aa/)	8r	4F#\	.
.	8r	.	.
8cc#/	8a\	8F#\	.
=7	=7	=7	=7
! (8cc#P/	!	!	!
4b#/)	4.g#\	8F#\L	.
.	.	16G#\L	.
.	.	16F#\	.
8g#/	.	16E\	.
.	.	16D#\JJ	.
! (8g#P/	!	!	!
[2.cc#m/)	8r	[4.E\	.
.	8r	.	.
.	8G#\	.	.
.	4c#\	8E\L]	.
.	.	8D#\	.
.	8e\	8C#\J	.
=8	=8	=8	=8
4cc#/]	[4.d#\	8F#\L	.
.	.	8E\	.
8dd#/	.	8D#\J	.
! (8cc#P/	!	!	!
[2.b/)	8.d#\L]	4G#\	.
.	16d#\L	.	.
.	16e\	8F#\	.
.	16f#\JJ	.	.
!	!	! (8F#P/	!
.	4g#\	8.E#\L)	.
.	.	16E#\L	.
.	8g#\	16F#\	.
.	.	16G#\JJ	.
=9	=9	=9	=9
4.b/]	4g#\	8A\L	.
.	.	8B\	.
.	8c#\	8G#\J	.
4aT/	[4.f#\	8F#\L	.
.	.	8G#\	.
8g#/	.	8E\J	.
! (8g#P/	!	!	!
4a/)	4f#\]	8D#\L	.
.	.	8E\	.
8b/	8f#\	8C#\J	.
=10	=10	=10	=10
! (8aP/	!	!	!
4g#/)	4f#\	8BB#/L	.
.	.	8AA#/	.
8r	8g#\	8GG#/J	.
8r	[4.eT\	8C#/L	.
8r	.	8D#/	.
8g#/	.	8BBn/J	.
[4.cc#/	8e\L]	8AA#/L	.
.	8d#\	8BB/	.
.	8e\J	8GG#/J	.
=11	=11	=11	=11
4cc#/]	2.d#\	8FF##/L	.
.	.	8EE#/	.
8dd#/	.	8DD#/J	.
(8cc#/	.	8GG#/L	.
[4bT/)	.	8BB/	.
.	.	8AA#/J	.
8b/L]	4.g#\	8BB/L	.
8a#/	.	8C#/	.
8b/J	.	8D#/J	.
=12	=12	=12	=12
(8bP/	4.g#\	8E\L	.
[4a#/)	.	8F#\	.
.	.	8D#\J	.
4a#/]	4f##\	8C#/L	.
.	.	8D#/	.
8b/	8g#\	8BB/J	.
[4.cc#/	[4.a#\	16AA#/LL	.
.	.	16BB/J	.
.	.	8C#/	.
.	.	8AA#/J	.
=13	=13	=13	=13
8cc#/L]	4a#\]	[4.DD#/	.
8ee/	.	.	.
8dd#/J	8b\	.	.
(8dd#P/	[4.cc#\	4DD#/]	.
[4eem/)	.	.	.
.	.	8F##\	.
4ee/]	4cc#\]	(8F##/	.
.	.	[4G#\)	.
8cc#/	8a#\	.	.
=14	=14	=14	=14
4dd#M/	4.b\	8G#\L]	.
.	.	8F#\	.
8ee/	.	8E\J	.
8ff#/L	4.b#\	4D#\	.
8ee/	.	.	.
8dd#/J	.	8G#\	.
8ee#/L	4.cc#\	[4C#t/	.
8gg#/	.	.	.
8ff##/J	.	16C#/LL]	.
.	.	32BB#/L	.
.	.	32C#/JJJ	.
=15	=15	=15	=15
8gg#/L	4.bn\	[4C##t/	.
8ff##/	.	.	.
8ee#/J	.	16C##/LL]	.
.	.	32BB#/L	.
.	.	32C##/JJJ	.
4ff##/	8a#\L	[4.D#\	.
.	8cc#\	.	.
8gg#/	8b\J	.	.
4aa#/	16cc#\LL	4D#\]	.
.	16dd#\J	.	.
.	8ee\	.	.
8ff##/	8dd#\J	8d#\	.
=16	=16	=16	=16
!!.	(8cc#P/	.	.
4gg#/	4bp\)	8e\L	.
.	.	8d#\	.
8aa#/	8cc#\	8c#\J	.
4.gg#/	4.b\	4.d#\	.
4ff##t/	4a#\	4.D#\	.
8gg#/	8b\	.	.
=17	=17	=17	=17
4.gg#/	[4.g#\	8GG#/L	.
.	.	8BB/	.
.	.	8D#/J	.
4.r	4g#\]	[2.G#\	.
.	8dd#\	.	.
.	(8dd#P/	.	.
4.r	4eep\)	.	.
.	8cc#\	.	.
=18	=18	=18	=18
*v	*v	*	*
(8b/	8.G#\L	.
[4a#p\)	.	.
.	16C#\L	.
.	16D#\	.
.	16E\JJ	.
8.a#\L]	4F#\	.
16cc#\L	.	.
16b\	8FF#/	.
16a#\JJ	.	.
8dd#\L	[4.F#M\	.
16ff#\L	.	.
16ee\J	.	.
8ff#\J	.	.
=19	=19	=19
*^	*	*
4.r	8b#t\L	4.F#\	.
.	8a#\	.	.
.	8g#\J	.	.
8r	[2.cc#\	[4ET\	.
8r	.	.	.
8gg#/	.	16E\LL]	.
.	.	32D#\L	.
.	.	32E\JJJ	.
!!(8gg#P/	.	.	.
4aap/)	.	[4F#t\	.
8ff#/	.	16F#\LL]	.
.	.	32E\L	.
.	.	32F#\JJJ	.
=20	=20	=20	=20
(8ee/	4.cc#\]	4G#\]	.
[4dd#/)	.	.	.
.	.	8A\	.
8.dd#/L]	[2.b\	4G#\	.
16ff#/L	.	.	.
16ee#/	.	8F#\	.
16dd#/JJ	.	.	.
8gg#/L	.	8E#\L	.
16bb/L	.	8F#\	.
16aa/J	.	.	.
8bb/J	.	8G#\J	.
=21	=21	=21	=21
8ee#t/L	4.b\]	4.C#/	.
8dd#/	.	.	.
8cc#/J	.	.	.
[2.ff#/	8a\L	4r	.
.	8b\	.	.
.	8a\J	8c#\	.
!!.	(8aP/	(8c#P/	.
.	4g#p\)	4dnp\)	.
.	8a\	8B\	.
=22	=22	=22	=22
8ff#/L]	[4.b\	(8A/	.
8ee/	.	[4G#p\)	.
8dd#/J	.	.	.
[2.ee/	4b\]	8.G#\L]	.
.	.	16B\L	.
.	8cc#\	16A#\	.
.	.	16G#\JJ	.
!!.	(8bP/	.	.
.	4a#p\)	8c#\L	.
.	.	16e\L	.
.	.	16d#\J	.
.	8g#\	8e\J	.
=23	=23	=23	=23
4.ee/_	4cc#\	8A#t\L	.
.	.	8G#\	.
.	8a#\	8F#\J	.
8ee/L]	[4.f#\	4B\	.
8dd#/	.	.	.
8cc#/J	.	8BB/	.
8dd#/L	4f#\]	[4.BM\	.
8cc#/	.	.	.
8b/J	8g#\	.	.
=24	=24	=24	=24
[4.cc#/	8e\L	8B\L]	.
.	8d#\	16c#\L	.
.	.	16B\	.
.	8c#\J	16A\	.
.	.	16G#\JJ	.
4cc#/]	8f#\L	4A\	.
.	8g#\	.	.
8ff#/	8a\J	8AA/	.
8ee/L	8g#\L	[4.AM\	.
8dd#/	8f#\	.	.
8cc#/J	8e\J	.	.
=25	=25	=25	=25
[4.b/	8d#\L	8A\L]	.
.	8c#\	16B\L	.
.	.	16A\	.
.	8B\J	16G#\	.
.	.	16F#\JJ	.
8b/L]	[2.e\	4G#\	.
8a/	.	.	.
8g#/J	.	8c#\	.
!!.	.	(8BP/	.
8cc#/L	.	4Ap\)	.
8dd#/	.	.	.
8ee/J	.	8G#\	.
=26	=26	=26	=26
8a/L	2.e\]	8F#\L	.
8b/	.	8G#\	.
8cc#/J	.	8A\J	.
!!(8aP/	.	.	.
8.g#p/L)	.	4.BM\	.
16f#/L	.	.	.
16e/	.	.	.
16f#/JJ	.	.	.
[4f#t/	4.d#\	4.BB/	.
16f#/LL]	.	.	.
32e/L	.	.	.
32f#/JJJ	.	.	.
=27	=27	=27	=27
8e/L	4e\	[4.E\	.
8g#/	.	.	.
8b/J	8r	.	.
16ee/LL	4.r	8E\L]	.
16dd#/J	.	.	.
8ee/	.	16G#\L	.
.	.	16F#\	.
8ee/J	.	16E\	.
.	.	16D#\JJ	.
4eem/	4.r	8C#\L	.
.	.	8B\	.
8ee/	.	8A#\J	.
=28	=28	=28	=28
8ee/L	8B/L	[4.B\	.
16ff#/L	8d#\	.	.
16ee/	.	.	.
16dd#/	8f#\J	.	.
16cc#/JJ	.	.	.
4dd#/	16b\LL	8.B\L]	.
.	16a\J	.	.
.	8b\	.	.
.	.	16An\L	.
8ee#/	8b\J	16G#\	.
.	.	16F#\JJ	.
!!(8ff#P/	.	.	.
4ee#p/)	4b\	4G#\	.
8ff#/	8b\	8c#\	.
=29	=29	=29	=29
[4.ff#/	8b\L	8F#\L	.
.	16cc#\L	8A\	.
.	16b\	.	.
.	16a\	8c#\J	.
.	16g#\JJ	.	.
8ff#/L]	[4.a\	16f#\LL	.
.	.	16e#\J	.
16aa/L	.	8f#\	.
16gg#/	.	.	.
16ff#/	.	8f#\J	.
16ee/JJ	.	.	.
8dd#/L	4a\]	4f#m\	.
16ff#/L	.	.	.
16ee/J	.	.	.
8ff#/J	8a\	8f#\	.
=30	=30	=30	=30
!!(8cc#P/	.	.	.
4b#p/)	4.g#\	8f#\L	.
.	.	16g#\L	.
.	.	16f#\	.
8dd#/	.	16e\	.
.	.	16d#\JJ	.
[4.gg#/	8r	8e\L	.
.	8r	16e\L	.
.	.	16d#\J	.
.	8g#\	8e\J	.
8.gg#/L]	[4.cc#\	4em\	.
16gg#/L	.	.	.
16aa#/	.	8e\	.
16bbn/JJ	.	.	.
=31	=31	=31	=31
[4aa#t/	4.cc#\]	8e\L	.
.	.	16f#\L	.
.	.	16e\	.
16aa#/LL]	.	16dn\	.
32gg#/L	.	16c#\JJ	.
32aa#/JJJ	.	.	.
8.bb/L	8r	16d\LL	.
.	.	16c#\J	.
.	8r	8d\	.
16aan/L	.	.	.
16gg#/	8f#\	8d\J	.
16ff#/JJ	.	.	.
!!(8ff#P/	.	.	.
4gg#p/)	4b\	4d\	.
8ee#/	8g#\	8d\	.
=32	=32	=32	=32
!!(8ee#P/	.	.	.
4ff#p/)	4a\	4c#\	.
8gg#/	8b\	8B\	.
(8ff#/	4g#\	4.c#\	.
[4ee#p/)	.	.	.
.	16b\LL	.	.
.	32cc#\L	.	.
.	32ddn\JJJ	.	.
4ee#/]	8dd\L	4.C#/	.
.	8cc#\	.	.
8ff#/	8b\J	.	.
=33	=33	=33	=33
[4.ff#/	4.a\	8FF#/L	.
.	.	8AA/	.
.	.	8C#/J	.
4ff#/]	4r	[2.F#\	.
16ff#/LL	8c#\	.	.
32gg#/L	.	.	.
32aa/JJJ	.	.	.
!!(8eeP/	.	.	.
4ddnp/)	4f#\	.	.
8cc#/	8a\	.	.
=34	=34	=34	=34
!!(8cc#P/	.	.	.
8.bp/L)	[4.g#\	8F#\L]	.
.	.	8E\	.
16ddn/L	.	.	.
16cc#/	.	8Dn\J	.
16b/JJ	.	.	.
[4.gg#/	8.g#\L]	(8D/	.
.	.	[4Ep\)	.
.	16g#\L	.	.
.	16a\	.	.
.	16b\JJ	.	.
4gg#/]	4cc#\	8.E/L]	.
.	.	16AA/L	.
8aa/	8cc#\	16BB/	.
.	.	16C#/JJ	.
=35	=35	=35	=35
(8gg#/	4cc#\	[4.Dn/	.
[4ff#p/)	.	.	.
.	8f#\	.	.
8.ff#/L]	[4.b\	8.D/L]	.
16aa/L	.	16C#/L	.
16gg#/	.	16BB/	.
16ff#/JJ	.	16AA/JJ	.
8ff#/L	4b\]	4GG#/	.
8ee#/	.	.	.
8gg#/J	8b\	8BB/	.
=36	=36	=36	=36
!!(8ddnP/	.	.	.
4cc#p/)	4b\	4EE#/	.
8ee#/	8cc#\	8CC#/	.
4ff#/	(8b\	8.FF#/L	.
.	[4ap\)	.	.
.	.	16C#/L	.
8aa/	.	16D#/	.
.	.	16En/JJ	.
8dd#/L	8a\L]	4F#\	.
8een/	8g#\	.	.
8ff#/J	8a\J	8F#\	.
=37	=37	=37	=37
!!(8cc#P/	.	.	.
4b#p/)	4.g#\	8F#\L	.
.	.	16G#\L	.
.	.	16F#\	.
8g#/	.	16E\	.
.	.	16D#\JJ	.
[2.cc#/	4r	8E\L	.
.	.	16F#\L	.
.	.	16E\	.
.	8g#\	16D#\	.
.	.	16C#\JJ	.
.	4aM\	8F#\L	.
.	.	16A\L	.
.	.	16G#\J	.
.	8e\	8A\J	.
=38	=38	=38	=38
8.cc#/L]	[4.f#\	8D#\L	.
.	.	8E\	.
16ee/L	.	.	.
16dd#/	.	8F#\J	.
16cc#/JJ	.	.	.
(8cc#/	8.f#\L]	4G#\	.
4b#p/)	.	.	.
.	16a\L	.	.
.	16g#\	8D#\	.
.	16f#\JJ	.	.
!!.	(8f#P/	.	.
4.r	4dd#p\)	4BB#/	.
.	8f#\	8GG#/	.
=39	=39	=39	=39
4.r	[2.e\	8.C#\L	.
.	.	16G#\L	.
.	.	16A#\	.
.	.	16B#\JJ	.
8r	.	8c#\L	.
8r	.	8d#\	.
8g#/	.	8Bn\J	.
4cc#M/	4e\]	8An\L	.
.	.	8B\	.
8ee/	8cc#\	8G#\J	.
=40	=40	=40	=40
(8ee/	4.cc#\	8.F#\L	.
[4dd#p/)	.	.	.
.	.	16D#\L	.
.	.	16E\	.
.	.	16F#\JJ	.
8.dd#/L]	4.b#\	8G#\L	.
.	.	8A\	.
16dd#/L	.	.	.
16ee/	.	8F#\J	.
16ff#/JJ	.	.	.
4gg#/	8r	[4E#T\	.
.	16bn\LL	.	.
.	16a#\J	.	.
8gg#/	8b\J	16E#\LL]	.
.	.	32D#\L	.
.	.	32E#\JJJ	.
=41	=41	=41	=41
!!(8aanP/	.	.	.
4gg#p/)	4.b\	[4.F#\	.
8cc#/	.	.	.
[4.ff#/	8.a#\L	4F#\]	.
.	16b\L	.	.
.	16a#\	8E\	.
.	16g#\JJ	.	.
4ff#/]	4an\	8D#\L	.
.	.	8E\	.
8ff#/	8a\	8C#\J	.
=42	=42	=42	=42
4ff#/	8a\L	4BB#/	.
.	8g#\	.	.
8gg#/	8b#\J	8GG#/	.
(8ff#/	[4.cc#\	4.C#/	.
[4eepT/)	.	.	.
8ee/L]	8cc#\L]	4.CC#/	.
8dd#/	8b#\	.	.
8ee/J	8cc#\J	.	.
=43	=43	=43	=43
(8ee/	4.b#\	8GG#/L	.
4dd#p/)	.	8BB#/	.
.	.	8D#/J	.
8r	4.r	8.G#\L	.
8r	.	.	.
.	.	16A\L	.
8dd#/	.	16G#\	.
.	.	16F#\JJ	.
!!(8dd#P/	.	.	.
4eep/)	8r	4G#M\	.
.	8r	.	.
8b#/	8g#\	8G#\	.
=44	=44	=44	=44
(8b#/	4.a\	8.G#\L	.
[4cc#p/)	.	.	.
.	.	16C#\L	.
.	.	16D#\	.
.	.	16E#\JJ	.
8.cc#/L]	4.r	8.F#m\L	.
16ee/L	.	16G#\L	.
16dd#/	.	16F#\	.
16cc#/JJ	.	16En\JJ	.
!!(8cc#P/	.	.	.
4aap/)	8r	4F#m\	.
.	8r	.	.
8cc#/	8a\	8F#\	.
=45	=45	=45	=45
!!(8cc#P/	.	.	.
4b#p/)	4g#\	8.F#\L	.
.	.	16BB#\L	.
8g#/	8r	16C#\	.
.	.	16D#\JJ	.
[4.gg#/	8r	8.E\L	.
.	8r	.	.
.	.	16F#\L	.
.	8g#\	16E\	.
.	.	16D#\JJ	.
4gg#/]	16cc#\LL	4E\	.
.	16dd#\J	.	.
.	8ee\	.	.
8gg#/	8cc#\J	8E\	.
=46	=46	=46	=46
4.gg#/	(8b/	8.E/L	.
.	[4a#p\)	.	.
.	.	16AA#/L	.
.	.	16BB#/	.
.	.	16C#/JJ	.
4.ff##/	8.a#\L]	8.D#\L	.
.	16cc#\L	16E\L	.
.	16b\	16D#\	.
.	16a#\JJ	16C#\JJ	.
8r	8b#\L	4D#\	.
8r	8cc#\	.	.
8ff#/	8dd#\J	8D#\	.
=47	=47	=47	=47
!!(8ff#P/	.	.	.
8.ee#p/L)	[4.g#\	8.D#/L	.
16dd#/L	.	16GG#/L	.
16cc#/	.	16AA#/	.
16dd#/JJ	.	16BB#/JJ	.
!!(8dd#P/	.	.	.
[2.eenp/)	8.g#\L]	8.C#/L	.
.	16e\L	16D#/L	.
.	16f#\	16C#/	.
.	16g#\JJ	16BB#/JJ	.
.	8a\L	8C#/L	.
.	16cc#\L	8D#/	.
.	16b#\J	.	.
.	8cc#\J	8E/J	.
=48	=48	=48	=48
8ee/L]	[4.f#\	4AA/	.
8dd#/	.	.	.
8cc#/J	.	8A\	.
(8cc#/	4f#\]	8.A\L	.
4b#p/)	.	.	.
.	.	16D#\L	.
.	8g#\	16E\	.
.	.	16F#\JJ	.
[4.bn/	8f#\L	4G#\	.
.	8e#\	.	.
.	8d#\J	8G#\	.
=49	=49	=49	=49
4b/]	(8d#/	4G#\	.
.	4e#p\)	.	.
8cc#/	.	8C#/	.
8b/L	4f#\	16F#\LL	.
.	.	16E#\J	.
8a/	.	8F#\	.
8g#/J	8en\	8F#\J	.
!!(8g#/	(8eP\	.	.
4f#p/)	4d#p\)	4F#\	.
8e/	8c#\	8F#\	.
=50	=50	=50	=50
(8eP/	4.B#\	8F#\L	.
8.d#p/L)	.	8F#\L	.
.	.	16G#\L	.
16g#/L	.	16F#\	.
16b#/	.	16E\	.
16dd#/JJ	.	16D#\JJ	.
16gg#/LL	4.r	[4.ET\	.
16ff#/J	.	.	.
8gg#/	.	.	.
8gg#/J	.	.	.
4gg#/	4.r	4E\]	.
8gg#/	.	16D#\LL	.
.	.	16E\JJ	.
=51	=51	=51	=51
8gg#/L	8r	8D#\	.
16aa/L	16r	8r	.
16gg#/	16d#\LL	.	.
16ff#/	16f#\	8r	.
16ee/JJ	16a#\JJ	.	.
4ff#/	16dd#\LL	8r	.
.	16cc#\J	.	.
.	8dd#\	16r	.
.	.	16E\LL	.
8ff#/	8dd#\J	16D#\	.
.	.	16C#\JJ	.
4ff#/	4dd#\	16BB#/LL	.
.	.	16C#/J	.
.	.	8D#/	.
8ff#/	8dd#\	8GG#/J	.
=52	=52	=52	=52
4.ff#/	8dd#\L	8.C#\L	.
.	16ee\L	.	.
.	16dd#\	16D#\L	.
.	16cc#\	16E\	.
.	16b#\JJ	16G#\JJ	.
8ee/L	8cc#\L	16c#\LL	.
.	.	16B#\J	.
8ff#/	8dd#\	8c#\	.
8gg#/J	8ee\J	8c#\J	.
8cc#/L	8a#\L	4c#\	.
8dd#/	8bn\	.	.
8ee/J	8cc#\J	8c#\	.
=53	=53	=53	=53
!!(8bP/	.	.	.
4a#p/)	4.f##\	8c#\L	.
.	.	16d#\L	.
.	.	16c#\	.
8d#/	.	16B\	.
.	.	16A#\JJ	.
16dd#/LL	8r	8B\L	.
16cc#/JJ	.	.	.
[4dd#/	8r	16B\L	.
.	.	16A#\J	.
.	8d#\	8B\J	.
8.dd#/L]	[4.g#\	4B\	.
16dd#/L	.	.	.
16ee#/	.	8B\	.
16ff#/JJ	.	.	.
=54	=54	=54	=54
[4ee#t/	4.g#\]	8B\L	.
.	.	16c#\L	.
.	.	16B\	.
16ee#/LL]	.	16An\	.
32dd#/L	.	16G#\JJ	.
32ee#/JJJ	.	.	.
8.ff#/L	8c#\	16A\LL	.
.	.	16F#\	.
.	8r	16G#\	.
16een/L	.	16A\	.
16ddn/	8r	16B\	.
16cc#/JJ	.	16c#\JJ	.
[4.b/	8r	16dn\LL	.
.	.	16c#\J	.
.	16r	8d\	.
.	16a\LL	.	.
.	16g#\	8B\J	.
.	16f#\JJ	.	.
=55	=55	=55	=55
!!.	.	(8F#P/	.
4b/]	2.g#\	8.E#p\L)	.
.	.	16C#\L	.
8cc#/	.	16D#\	.
.	.	16E#\JJ	.
[4.aTz/xx	.	8F#\L	z
.	.	16A\L	.
.	.	16G#\	.
.	.	16F#\	.
.	.	16En\JJ	.
4aT/_	[4.f#\	8D#\L	.
.	.	8E\	.
16a/LL]	.	8C#\J	.
32g#/L	.	.	.
32a/JJJ	.	.	.
=56	=56	=56	=56
4g#/	4f#\]	16BB#/LL	.
.	.	16C#/J	.
.	.	8D#/	.
8r	8g#\	8GG#/J	.
8r	[4.e\	8C#\L	.
8r	.	8E\	.
8g#/	.	8D#\J	.
[4.cc#/	8e\L]	8E\L	.
.	8d#\	8F#\	.
.	8e\J	8G#\J	.
=57	=57	=57	=57
4.cc#/]	(8e/	8A\L	.
.	[4d#p\)	8B\	.
.	.	8G#\J	.
4b#/	4d#\]	8F#\L	.
.	.	8G#\	.
8cc#/	8e\	8E\J	.
[4.dd#/	[4.f#\	16D#\LL	.
.	.	16E\J	.
.	.	8F#\	.
.	.	8D#\J	.
=58	=58	=58	=58
4dd#/]	8f#\L]	[4.GG#/	.
.	8a\	.	.
8ee/	8g#\J	.	.
(8ee/	(8g#\	4GG#/]	.
[4ff#p/)	[4ap\)	.	.
.	.	8B#\	.
4ff#/]	4a\]	(8B#/	.
.	.	[4c#p\)	.
8dd#/	8f#\	.	.
=59	=59	=59	=59
(8dd#/	4g#\	8c#\L]	.
4eep/)	.	8B\	.
.	8a\	8A\J	.
4.ee#/	8b\L	4G#\	.
.	8a\	.	.
.	8g#\J	8c#\	.
4.ff#/	8a#\L	[4F#t\	.
.	8cc#\	.	.
.	8b#\J	16F#\LL]	.
.	.	32E#\L	.
.	.	32F#\JJJ	.
=60	=60	=60	=60
4.ee/	8cc#\L	[4F##t\	.
.	8b#\	.	.
.	8a#\J	16F##\LL]	.
.	.	32E#\L	.
.	.	32F##\JJJ	.
8dd#/L	4b#\	[4.G#\	.
8ff#/	.	.	.
8ee/J	8cc#\	.	.
16ff#/LL	4dd#\	4G#\]	.
16gg#/J	.	.	.
8aan/	.	.	.
8gg#/J	8b#\	8GG#/	.
=61	=61	=61	=61
*^	*	*	*
!!(8ff#P/	.	.	.	.
4eep/)	4cc#\	4.ryy	8AA/L	.
.	.	.	8GG#/	.
8dd#/	8a\	.	8FF#/J	.
4.cc#/	4.e\	4.r	2.GG#\	.
4b#T/	4d#\	4.G#/	.	.
8cc#/	8e\	.	.	.
=62	=62	=62	=62	=62
*v	*v	*v	*	*
4.cc#/ 4.g#/ 4.e/ 4.c#/	4.CC#/	.
4.r	4.r	.
4.r	4.r	.
==|!	==|!	==|!
*-	*-	*-
!!!RWG: Key is interpreted using the Humdrum key tool.
!!!AFT: stage2
!!!END: 1994/01/31/
!!format changes:
!!content changes:
!!public access: complete
!!!KEY: 260017735
!!!EMD: Converted from MuseData to Humdrum Dec 19, 2000, by Andreas Kornstaedt using muse2kern.
